src/icons/outline/symbols/archive.svg

<svg width="24" height="24" viewBox="0 0 24 24" fill="none" xmlns="http://www.w3.org/2000/svg">
<g clip-path="url(#clip0_4704_848)">
<path d="M20.8809 9.21088C21.3005 9.211 21.6484 9.55587 21.6484 9.97162V18.5312C21.6484 20.4378 20.0822 21.9998 18.1475 21.9999H5.8623C3.93777 21.9998 2.36133 20.448 2.36133 18.5312V9.97162C2.36133 9.55587 2.70927 9.211 3.12891 9.21088C3.54864 9.21088 3.89648 9.5558 3.89648 9.97162V18.5312C3.89648 19.6062 4.77723 20.4784 5.8623 20.4785H18.1475C19.2325 20.4784 20.1133 19.6062 20.1133 18.5312V9.97162C20.1133 9.5558 20.4611 9.21088 20.8809 9.21088Z" fill="#3C3B44"/>
<path fill-rule="evenodd" clip-rule="evenodd" d="M13.8271 9.66693C14.6871 9.66693 15.957 10.2256 15.957 11.7773V12.6796C15.957 13.5316 15.3934 14.789 13.8271 14.789H10.1826C9.32271 14.7888 8.05378 14.231 8.05371 12.6796V11.7773C8.05371 10.9254 8.61665 9.66718 10.1826 9.66693H13.8271ZM10.1826 11.1884C10.0388 11.1884 9.59909 11.1893 9.58887 11.787V12.6796C9.58887 12.8217 9.58954 13.2574 10.1934 13.2675H13.8271C13.9705 13.2675 14.4107 13.2673 14.4209 12.6689V11.7773C14.4209 11.6353 14.4213 11.1986 13.8174 11.1884H10.1826Z" fill="#3C3B44"/>
<path fill-rule="evenodd" clip-rule="evenodd" d="M20.8711 1.99994C22.0481 2.00018 22.9999 2.94321 23 4.10931V6.81732C23 7.23307 22.6521 7.57794 22.2324 7.57806H1.76758C1.34795 7.57794 1 7.23307 1 6.81732V4.10931C1.00009 2.95335 1.95188 2.00019 3.12891 1.99994H20.8711ZM3.12891 3.52142C2.80157 3.52167 2.53524 3.78499 2.53516 4.10931V6.05658H21.4746V4.10931C21.4745 3.82526 21.2706 3.58787 21 3.53314L20.8809 3.52142H3.12891Z" fill="#3C3B44"/>
</g>
<defs>
<clipPath id="clip0_4704_848">
<rect width="24" height="24" fill="white"/>
</clipPath>
</defs>
</svg>

<svg xmlns="http://www.w3.org/2000/svg" width="24" height="24" fill="none" viewBox="0 0 24 24"><g fill="currentColor" clip-path="url(#a)"><path d="M20.88 9.21a.77.77 0 0 1 .768.762v8.56c0 1.906-1.566 3.468-3.5 3.468H5.862c-1.924 0-3.5-1.552-3.5-3.469v-8.56a.77.77 0 0 1 .767-.76.77.77 0 0 1 .767.76v8.56c0 1.075.881 1.947 1.966 1.948h12.285a1.957 1.957 0 0 0 1.966-1.948v-8.56a.77.77 0 0 1 .768-.76"/><path fill-rule="evenodd" d="M13.827 9.667c.86 0 2.13.559 2.13 2.11v.903c0 .852-.564 2.109-2.13 2.109h-3.644c-.86 0-2.13-.558-2.13-2.11v-.902c0-.852.564-2.11 2.13-2.11zm-3.644 1.521c-.144 0-.584.001-.594.599v.893c0 .142 0 .577.604.588h3.634c.143 0 .584 0 .594-.6v-.89c0-.143 0-.58-.604-.59zM20.871 2C22.048 2 23 2.943 23 4.11v2.707a.77.77 0 0 1-.768.761H1.768A.77.77 0 0 1 1 6.818v-2.71C1 2.953 1.952 2 3.129 2zM3.13 3.52a.59.59 0 0 0-.594.588v1.948h18.94V4.109A.59.59 0 0 0 21 3.533l-.12-.012z" clip-rule="evenodd"/></g><defs><clipPath id="a"><path fill="currentColor" d="M0 0h24v24H0z"/></clipPath></defs></svg>
